src/assets/icons/court.svg

<svg width="11" height="12" viewBox="0 0 11 12" fill="none" xmlns="http://www.w3.org/2000/svg">
<path d="M10.252 4.71948C10.3176 4.7195 10.3826 4.70658 10.4433 4.68146C10.504 4.65633 10.5591 4.61951 10.6055 4.57307C10.652 4.52664 10.6888 4.47151 10.7139 4.41084C10.739 4.35017 10.752 4.28515 10.752 4.21948V2.71948C10.752 2.61457 10.719 2.51231 10.6576 2.4272C10.5963 2.3421 10.5097 2.27848 10.4102 2.24536L5.91016 0.745361C5.80746 0.711182 5.69645 0.711182 5.59375 0.745361L1.09375 2.24536C0.9942 2.27848 0.907607 2.3421 0.846256 2.4272C0.784905 2.51231 0.75191 2.61457 0.751953 2.71948V4.21948C0.751936 4.28515 0.764857 4.35017 0.789979 4.41084C0.8151 4.47151 0.851929 4.52664 0.898362 4.57307C0.944794 4.61951 0.999921 4.65633 1.06059 4.68146C1.12126 4.70658 1.18629 4.7195 1.25195 4.71948H1.75195V8.31162C1.46032 8.41434 1.20764 8.60482 1.02859 8.85689C0.849538 9.10897 0.752904 9.41029 0.751953 9.71948V10.7195C0.751936 10.7851 0.764857 10.8502 0.789979 10.9108C0.8151 10.9715 0.851929 11.0266 0.898362 11.0731C0.944794 11.1195 0.999921 11.1563 1.06059 11.1815C1.12126 11.2066 1.18629 11.2195 1.25195 11.2195H10.252C10.3176 11.2195 10.3826 11.2066 10.4433 11.1815C10.504 11.1563 10.5591 11.1195 10.6055 11.0731C10.652 11.0266 10.6888 10.9715 10.7139 10.9108C10.739 10.8502 10.752 10.7851 10.752 10.7195V9.71948C10.751 9.41029 10.6544 9.10897 10.4753 8.85689C10.2963 8.60482 10.0436 8.41434 9.75195 8.31162V4.71948H10.252ZM9.75195 10.2195H1.75195V9.71948C1.75209 9.58691 1.80481 9.45981 1.89855 9.36607C1.99229 9.27234 2.11939 9.21961 2.25195 9.21948H9.25195C9.38452 9.21961 9.51162 9.27234 9.60536 9.36607C9.6991 9.45981 9.75182 9.58691 9.75195 9.71948V10.2195ZM2.75195 8.21948V4.71948H3.75195V8.21948H2.75195ZM4.75195 8.21948V4.71948H6.75195V8.21948H4.75195ZM7.75195 8.21948V4.71948H8.75195V8.21948H7.75195ZM1.75195 3.71948V3.07983L5.75195 1.74633L9.75195 3.07983V3.71948H1.75195Z" fill="black"/>
</svg>

<svg xmlns="http://www.w3.org/2000/svg" width="11" height="12" fill="none"><path fill="#000" d="M10.252 4.72a.5.5 0 0 0 .5-.5v-1.5a.5.5 0 0 0-.342-.475l-4.5-1.5a.5.5 0 0 0-.316 0l-4.5 1.5a.5.5 0 0 0-.342.474v1.5a.5.5 0 0 0 .5.5h.5v3.593a1.5 1.5 0 0 0-1 1.407v1a.5.5 0 0 0 .5.5h9a.5.5 0 0 0 .5-.5v-1a1.5 1.5 0 0 0-1-1.407V4.719zm-.5 5.5h-8v-.5a.5.5 0 0 1 .5-.5h7a.5.5 0 0 1 .5.5zm-7-2v-3.5h1v3.5zm2 0v-3.5h2v3.5zm3 0v-3.5h1v3.5zm-6-4.5v-.64l4-1.334 4 1.334v.64z"/></svg>
